mimes/32/text-markdown.svg

<?xml version="1.0" encoding="UTF-8" standalone="no"?>
<svg
   version="1.1"
   width="32"
   height="32"
   id="svg3182"
   xmlns:xlink="http://www.w3.org/1999/xlink"
   xmlns="http://www.w3.org/2000/svg"
   xmlns:svg="http://www.w3.org/2000/svg"
   xmlns:rdf="http://www.w3.org/1999/02/22-rdf-syntax-ns#"
   xmlns:cc="http://creativecommons.org/ns#"
   xmlns:dc="http://purl.org/dc/elements/1.1/">
  <defs
     id="defs3184">
    <linearGradient
       id="linearGradient3977">
      <stop
         id="stop3979"
         style="stop-color:#ffffff;stop-opacity:1"
         offset="0" />
      <stop
         id="stop3981"
         style="stop-color:#ffffff;stop-opacity:0.23529412"
         offset="0" />
      <stop
         id="stop3983"
         style="stop-color:#ffffff;stop-opacity:0.15686275"
         offset="0.99999994" />
      <stop
         id="stop3985"
         style="stop-color:#ffffff;stop-opacity:0.39215687"
         offset="1" />
    </linearGradient>
    <linearGradient
       id="linearGradient3600-4">
      <stop
         id="stop3602-7"
         style="stop-color:#f4f4f4;stop-opacity:1"
         offset="0" />
      <stop
         id="stop3604-6"
         style="stop-color:#dbdbdb;stop-opacity:1"
         offset="1" />
    </linearGradient>
    <linearGradient
       id="linearGradient5060">
      <stop
         id="stop5062"
         style="stop-color:#000000;stop-opacity:1"
         offset="0" />
      <stop
         id="stop5064"
         style="stop-color:#000000;stop-opacity:0"
         offset="1" />
    </linearGradient>
    <linearGradient
       id="linearGradient5048">
      <stop
         id="stop5050"
         style="stop-color:#000000;stop-opacity:0"
         offset="0" />
      <stop
         id="stop5056"
         style="stop-color:#000000;stop-opacity:1"
         offset="0.5" />
      <stop
         id="stop5052"
         style="stop-color:#000000;stop-opacity:0"
         offset="1" />
    </linearGradient>
    <linearGradient
       x1="23.99999"
       y1="6.1851754"
       x2="23.99999"
       y2="41.814808"
       id="linearGradient3013"
       xlink:href="#linearGradient3977"
       gradientUnits="userSpaceOnUse"
       gradientTransform="matrix(0.56756757,0,0,0.72972971,2.378382,-2.5135063)" />
    <linearGradient
       x1="25.132275"
       y1="0.98520643"
       x2="25.132275"
       y2="47.013336"
       id="linearGradient3016"
       xlink:href="#linearGradient3600-4"
       gradientUnits="userSpaceOnUse"
       gradientTransform="matrix(0.62856997,0,0,0.60839392,0.91431981,-0.5347905)" />
    <radialGradient
       cx="605.71429"
       cy="486.64789"
       r="117.14286"
       fx="605.71429"
       fy="486.64789"
       id="radialGradient3021"
       xlink:href="#linearGradient5060"
       gradientUnits="userSpaceOnUse"
       gradientTransform="matrix(0.01566318,0,0,0.00823529,17.610433,25.980565)" />
    <radialGradient
       cx="605.71429"
       cy="486.64789"
       r="117.14286"
       fx="605.71429"
       fy="486.64789"
       id="radialGradient3024"
       xlink:href="#linearGradient5060"
       gradientUnits="userSpaceOnUse"
       gradientTransform="matrix(-0.01566318,0,0,0.00823529,14.389566,25.980565)" />
    <linearGradient
       x1="302.85715"
       y1="366.64789"
       x2="302.85715"
       y2="609.50507"
       id="linearGradient3027"
       xlink:href="#linearGradient5048"
       gradientUnits="userSpaceOnUse"
       gradientTransform="matrix(0.04576928,0,0,0.00823529,-0.5423243,25.980548)" />
    <linearGradient
       id="linearGradient3104-6">
      <stop
         offset="0"
         style="stop-color:#000000;stop-opacity:0.31782946"
         id="stop3106-3" />
      <stop
         offset="1"
         style="stop-color:#000000;stop-opacity:0.24031007"
         id="stop3108-9" />
    </linearGradient>
    <linearGradient
       xlink:href="#linearGradient3104-6"
       id="linearGradient3148"
       gradientUnits="userSpaceOnUse"
       gradientTransform="matrix(0.53064141,0,0,0.58970049,39.269607,-1.791918)"
       x1="-51.786404"
       y1="50.786446"
       x2="-51.786404"
       y2="2.9062471" />
    <linearGradient
       gradientUnits="userSpaceOnUse"
       y2="8"
       x2="64"
       y1="112"
       x1="64"
       id="linearGradient4615"
       xlink:href="#linearGradient4613"
       gradientTransform="matrix(0.23529412,0,0,0.23529412,0.94117647,-0.58823015)" />
    <linearGradient
       id="linearGradient4613">
      <stop
         id="stop4609"
         offset="0"
         style="stop-color:#4a525a;stop-opacity:1;" />
      <stop
         id="stop4611"
         offset="1"
         style="stop-color:#505f6f;stop-opacity:1" />
    </linearGradient>
  </defs>
  <metadata
     id="metadata3187">
    <rdf:RDF>
      <cc:Work
         rdf:about="">
        <dc:format>image/svg+xml</dc:format>
        <dc:type
           rdf:resource="http://purl.org/dc/dcmitype/StillImage" />
      </cc:Work>
    </rdf:RDF>
  </metadata>
  <rect
     width="22.100021"
     height="2"
     x="4.9499893"
     y="29"
     id="rect2879"
     style="opacity:0.15;fill:url(#linearGradient3027);fill-opacity:1;fill-rule:nonzero;stroke:none;stroke-width:1;marker:none;visibility:visible;display:inline;overflow:visible" />
  <path
     d="m 4.9499887,29.000086 c 0,0 0,1.99989 0,1.99989 -0.806615,0.0038 -1.950002,-0.448074 -1.950002,-1.000074 0,-0.552 0.900121,-0.999816 1.950002,-0.999816 z"
     id="path2881"
     style="opacity:0.15;fill:url(#radialGradient3024);fill-opacity:1;fill-rule:nonzero;stroke:none;stroke-width:1;marker:none;visibility:visible;display:inline;overflow:visible" />
  <path
     d="m 27.050011,29.000086 c 0,0 0,1.99989 0,1.99989 0.806614,0.0038 1.950002,-0.448074 1.950002,-1.000074 0,-0.552 -0.900122,-0.999816 -1.950002,-0.999816 z"
     id="path2883"
     style="opacity:0.15;fill:url(#radialGradient3021);fill-opacity:1;fill-rule:nonzero;stroke:none;stroke-width:1;marker:none;visibility:visible;display:inline;overflow:visible" />
  <path
     d="m 5,1 c 5.041316,0 21.999973,0.00179 21.999973,0.00179 L 27,29 C 27,29 12.333334,29 5,29 5,19.666667 5,10.333336 5,1.0000041 z"
     id="path4160-3"
     style="fill:url(#linearGradient3016);fill-opacity:1;stroke:none;display:inline" />
  <path
     d="m 26.5,28.5 -21,0 0,-27 21,0 z"
     id="rect6741-1"
     style="fill:none;stroke:url(#linearGradient3013);stroke-width:1;stroke-linecap:round;stroke-linejoin:miter;stroke-miterlimit:4;stroke-opacity:1;stroke-dasharray:none;stroke-dashoffset:0" />
  <path
     style="fill:none;stroke:url(#linearGradient3148);stroke-width:0.9999218;stroke-linecap:butt;stroke-linejoin:round;stroke-miterlimit:4;stroke-opacity:1;stroke-dasharray:none;stroke-dashoffset:0;display:inline"
     id="path4160-6-1"
     d="m 4.499961,0.499944 c 5.27048,0 23.000054,0.002 23.000054,0.002 l 2.4e-5,28.998112 c 0,0 -15.333385,0 -23.000078,0 0,-9.666722 0,-19.333346 0,-28.999956 z" />
  <path
     style="font-variation-settings:normal;vector-effect:none;fill:url(#linearGradient4615);fill-opacity:1;stroke:none;stroke-width:4;stroke-linecap:butt;stroke-linejoin:miter;stroke-miterlimit:4;stroke-dasharray:none;stroke-dashoffset:0;stroke-opacity:1;-inkscape-stroke:none;stop-color:#000000"
     d="m 8.4118824,10 c -0.7821167,0 -1.4117647,0.629649 -1.4117647,1.411765 v 7.176352 c 0,0.782119 0.629648,1.411766 1.4117646,1.411766 H 23.588118 c 0.782117,0 1.411765,-0.629647 1.411765,-1.411766 V 11.411765 C 24.999883,10.629649 24.370235,10 23.588118,10 Z"
     id="rect323" />
  <path
     style="font-variation-settings:normal;vector-effect:none;fill:#fafafa;fill-opacity:1;stroke:none;stroke-width:4;stroke-linecap:butt;stroke-linejoin:miter;stroke-miterlimit:4;stroke-dasharray:none;stroke-dashoffset:0;stroke-opacity:1;-inkscape-stroke:none;stop-color:#000000"
     d="m 20.376001,12.000055 h 1.236072 c 0.207841,0 0.375,0.17404 0.375,0.389648 v 2.617453 h 1.028623 c 0.207841,0 0.374999,0.173064 0.374999,0.388673 0,0.116203 -0.04862,0.219823 -0.125978,0.291016 l -2.012284,2.206933 c -0.06719,0.06581 -0.157139,0.106444 -0.256835,0.106444 -0.0997,0 -0.189647,-0.04065 -0.256837,-0.106444 L 18.77043,15.686845 c -0.07735,-0.07118 -0.125977,-0.174813 -0.125977,-0.291016 0,-0.21561 0.16716,-0.388673 0.375,-0.388673 l 0.981546,0 v -2.617451 c -2.05e-4,-0.21561 0.167161,-0.38965 0.375002,-0.38965 z"
     id="path1236" />
  <path
     style="font-variation-settings:normal;vector-effect:none;fill:#fafafa;fill-opacity:1;stroke:none;stroke-width:4;stroke-linecap:butt;stroke-linejoin:miter;stroke-miterlimit:4;stroke-dasharray:none;stroke-dashoffset:0;stroke-opacity:1;-inkscape-stroke:none;stop-color:#000000"
     d="m 10.655255,12.000054 c 0.130042,-0.002 0.26071,0.04684 0.360352,0.146482 l 1.984395,1.489241 2.014009,-1.489241 c 0.09964,-0.09964 0.230309,-0.148403 0.360351,-0.146482 h 1.125628 c 0.276999,0 0.5,0.223 0.5,0.499994 v 4.999479 c 0,0.276993 -0.223001,0.499993 -0.5,0.499993 h -0.974261 c -0.276997,0 -0.499999,-0.223 -0.499999,-0.499993 v -2.247046 l -1.76401,1.317367 c -0.06098,0.05975 -0.14072,0.09782 -0.229492,0.104496 -0.0089,8.99e-4 -0.01822,0.0017 -0.02735,0.0021 -0.01247,0 -0.02498,-7.01e-4 -0.03711,-0.0021 -0.08877,-0.0067 -0.168497,-0.04475 -0.229492,-0.104496 l -1.73439,-1.317367 v 2.247043 c 0,0.276995 -0.223003,0.499995 -0.5,0.499995 H 9.500393 c -0.276997,0 -0.5,-0.223 -0.5,-0.499995 v -4.999478 c 0,-0.276993 0.223003,-0.499993 0.5,-0.499993 z"
     id="path1234" />
</svg>

<?xml version="1.0" encoding="UTF-8" standalone="no"?>
<svg
   version="1.1"
   width="32"
   height="32"
   id="svg3182"
   xmlns:xlink="http://www.w3.org/1999/xlink"
   xmlns="http://www.w3.org/2000/svg"
   xmlns:svg="http://www.w3.org/2000/svg"
   xmlns:rdf="http://www.w3.org/1999/02/22-rdf-syntax-ns#"
   xmlns:cc="http://creativecommons.org/ns#"
   xmlns:dc="http://purl.org/dc/elements/1.1/">
  <defs
     id="defs3184">
    <linearGradient
       id="linearGradient3977">
      <stop
         id="stop3979"
         style="stop-color:#ffffff;stop-opacity:1"
         offset="0" />
      <stop
         id="stop3981"
         style="stop-color:#ffffff;stop-opacity:0.23529412"
         offset="0" />
      <stop
         id="stop3983"
         style="stop-color:#ffffff;stop-opacity:0.15686275"
         offset="0.99999994" />
      <stop
         id="stop3985"
         style="stop-color:#ffffff;stop-opacity:0.39215687"
         offset="1" />
    </linearGradient>
    <linearGradient
       id="linearGradient3600-4">
      <stop
         id="stop3602-7"
         style="stop-color:#f4f4f4;stop-opacity:1"
         offset="0" />
      <stop
         id="stop3604-6"
         style="stop-color:#dbdbdb;stop-opacity:1"
         offset="1" />
    </linearGradient>
    <linearGradient
       id="linearGradient5060">
      <stop
         id="stop5062"
         style="stop-color:#000000;stop-opacity:1"
         offset="0" />
      <stop
         id="stop5064"
         style="stop-color:#000000;stop-opacity:0"
         offset="1" />
    </linearGradient>
    <linearGradient
       id="linearGradient5048">
      <stop
         id="stop5050"
         style="stop-color:#000000;stop-opacity:0"
         offset="0" />
      <stop
         id="stop5056"
         style="stop-color:#000000;stop-opacity:1"
         offset="0.5" />
      <stop
         id="stop5052"
         style="stop-color:#000000;stop-opacity:0"
         offset="1" />
    </linearGradient>
    <linearGradient
       x1="23.99999"
       y1="6.1851754"
       x2="23.99999"
       y2="41.814808"
       id="linearGradient3013"
       xlink:href="#linearGradient3977"
       gradientUnits="userSpaceOnUse"
       gradientTransform="matrix(0.56756757,0,0,0.72972971,2.378382,-2.5135063)" />
    <linearGradient
       x1="25.132275"
       y1="0.98520643"
       x2="25.132275"
       y2="47.013336"
       id="linearGradient3016"
       xlink:href="#linearGradient3600-4"
       gradientUnits="userSpaceOnUse"
       gradientTransform="matrix(0.62856997,0,0,0.60839392,0.91431981,-0.5347905)" />
    <radialGradient
       cx="605.71429"
       cy="486.64789"
       r="117.14286"
       fx="605.71429"
       fy="486.64789"
       id="radialGradient3021"
       xlink:href="#linearGradient5060"
       gradientUnits="userSpaceOnUse"
       gradientTransform="matrix(0.01566318,0,0,0.00823529,17.610433,25.980565)" />
    <radialGradient
       cx="605.71429"
       cy="486.64789"
       r="117.14286"
       fx="605.71429"
       fy="486.64789"
       id="radialGradient3024"
       xlink:href="#linearGradient5060"
       gradientUnits="userSpaceOnUse"
       gradientTransform="matrix(-0.01566318,0,0,0.00823529,14.389566,25.980565)" />
    <linearGradient
       x1="302.85715"
       y1="366.64789"
       x2="302.85715"
       y2="609.50507"
       id="linearGradient3027"
       xlink:href="#linearGradient5048"
       gradientUnits="userSpaceOnUse"
       gradientTransform="matrix(0.04576928,0,0,0.00823529,-0.5423243,25.980548)" />
    <linearGradient
       id="linearGradient3104-6">
      <stop
         offset="0"
         style="stop-color:#000000;stop-opacity:0.31782946"
         id="stop3106-3" />
      <stop
         offset="1"
         style="stop-color:#000000;stop-opacity:0.24031007"
         id="stop3108-9" />
    </linearGradient>
    <linearGradient
       xlink:href="#linearGradient3104-6"
       id="linearGradient3148"
       gradientUnits="userSpaceOnUse"
       gradientTransform="matrix(0.53064141,0,0,0.58970049,39.269607,-1.791918)"
       x1="-51.786404"
       y1="50.786446"
       x2="-51.786404"
       y2="2.9062471" />
    <linearGradient
       gradientUnits="userSpaceOnUse"
       y2="8"
       x2="64"
       y1="112"
       x1="64"
       id="linearGradient4615"
       xlink:href="#linearGradient4613"
       gradientTransform="matrix(0.23529412,0,0,0.23529412,0.94117647,-0.58823015)" />
    <linearGradient
       id="linearGradient4613">
      <stop
         id="stop4609"
         offset="0"
         style="stop-color:#4a525a;stop-opacity:1;" />
      <stop
         id="stop4611"
         offset="1"
         style="stop-color:#505f6f;stop-opacity:1" />
    </linearGradient>
  </defs>
  <metadata
     id="metadata3187">
    <rdf:RDF>
      <cc:Work
         rdf:about="">
        <dc:format>image/svg+xml</dc:format>
        <dc:type
           rdf:resource="http://purl.org/dc/dcmitype/StillImage" />
      </cc:Work>
    </rdf:RDF>
  </metadata>
  <rect
     width="22.100021"
     height="2"
     x="4.9499893"
     y="29"
     id="rect2879"
     style="opacity:0.15;fill:url(#linearGradient3027);fill-opacity:1;fill-rule:nonzero;stroke:none;stroke-width:1;marker:none;visibility:visible;display:inline;overflow:visible" />
  <path
     d="m 4.9499887,29.000086 c 0,0 0,1.99989 0,1.99989 -0.806615,0.0038 -1.950002,-0.448074 -1.950002,-1.000074 0,-0.552 0.900121,-0.999816 1.950002,-0.999816 z"
     id="path2881"
     style="opacity:0.15;fill:url(#radialGradient3024);fill-opacity:1;fill-rule:nonzero;stroke:none;stroke-width:1;marker:none;visibility:visible;display:inline;overflow:visible" />
  <path
     d="m 27.050011,29.000086 c 0,0 0,1.99989 0,1.99989 0.806614,0.0038 1.950002,-0.448074 1.950002,-1.000074 0,-0.552 -0.900122,-0.999816 -1.950002,-0.999816 z"
     id="path2883"
     style="opacity:0.15;fill:url(#radialGradient3021);fill-opacity:1;fill-rule:nonzero;stroke:none;stroke-width:1;marker:none;visibility:visible;display:inline;overflow:visible" />
  <path
     d="m 5,1 c 5.041316,0 21.999973,0.00179 21.999973,0.00179 L 27,29 C 27,29 12.333334,29 5,29 5,19.666667 5,10.333336 5,1.0000041 z"
     id="path4160-3"
     style="fill:url(#linearGradient3016);fill-opacity:1;stroke:none;display:inline" />
  <path
     d="m 26.5,28.5 -21,0 0,-27 21,0 z"
     id="rect6741-1"
     style="fill:none;stroke:url(#linearGradient3013);stroke-width:1;stroke-linecap:round;stroke-linejoin:miter;stroke-miterlimit:4;stroke-opacity:1;stroke-dasharray:none;stroke-dashoffset:0" />
  <path
     style="fill:none;stroke:url(#linearGradient3148);stroke-width:0.9999218;stroke-linecap:butt;stroke-linejoin:round;stroke-miterlimit:4;stroke-opacity:1;stroke-dasharray:none;stroke-dashoffset:0;display:inline"
     id="path4160-6-1"
     d="m 4.499961,0.499944 c 5.27048,0 23.000054,0.002 23.000054,0.002 l 2.4e-5,28.998112 c 0,0 -15.333385,0 -23.000078,0 0,-9.666722 0,-19.333346 0,-28.999956 z" />
  <path
     id="rect323"
     style="font-variation-settings:normal;vector-effect:none;fill:url(#linearGradient4615);fill-opacity:1;stroke:none;stroke-width:4;stroke-linecap:butt;stroke-linejoin:miter;stroke-miterlimit:4;stroke-dasharray:none;stroke-dashoffset:0;stroke-opacity:1;-inkscape-stroke:none;stop-color:#000000"
     d="M 8.4121094 10 C 7.6299935 10 7 10.629994 7 11.412109 L 7 18.587891 C 7 19.370009 7.6299936 20 8.4121094 20 L 23.587891 20 C 24.370007 20 25 19.370009 25 18.587891 L 25 11.412109 C 25 10.629994 24.370007 10 23.587891 10 L 8.4121094 10 z M 9.5 12 L 10.654297 12 C 10.784339 11.998 10.915983 12.046842 11.015625 12.146484 L 13 13.636719 L 15.013672 12.146484 C 15.113312 12.046844 15.244958 11.998079 15.375 12 L 16.5 12 C 16.776999 12 17 12.223006 17 12.5 L 17 17.5 C 17 17.776993 16.776999 18 16.5 18 L 15.525391 18 C 15.248394 18 15.025391 17.776993 15.025391 17.5 L 15.025391 15.251953 L 13.261719 16.570312 C 13.200739 16.630062 13.121975 16.667152 13.033203 16.673828 C 13.024303 16.674727 13.013036 16.675381 13.003906 16.675781 C 12.991436 16.675781 12.978927 16.675227 12.966797 16.673828 C 12.878027 16.667128 12.799276 16.630058 12.738281 16.570312 L 11.003906 15.251953 L 11.003906 17.5 C 11.003906 17.776995 10.780903 18 10.503906 18 L 9.5 18 C 9.2230036 18 9 17.776995 9 17.5 L 9 12.5 C 9 12.223007 9.2230036 12 9.5 12 z M 20.376953 12 L 21.611328 12 C 21.819169 12 21.986328 12.175017 21.986328 12.390625 L 21.986328 15.007812 L 23.015625 15.007812 C 23.223466 15.007812 23.390625 15.180877 23.390625 15.396484 C 23.390625 15.512687 23.342983 15.616307 23.265625 15.6875 L 21.251953 17.894531 C 21.184763 17.960341 21.09579 18 20.996094 18 C 20.896394 18 20.805471 17.960325 20.738281 17.894531 L 18.769531 15.6875 C 18.692181 15.61632 18.644531 15.512687 18.644531 15.396484 C 18.644531 15.180876 18.811691 15.007812 19.019531 15.007812 L 20.001953 15.007812 L 20.001953 12.390625 C 20.001748 12.175015 20.169112 12 20.376953 12 z " />
</svg>
